!!!!SEGMENT: pl-kk--kk-i-26--004_anonim--missa-agnus-dei.krn
!!!cenid: 17xx:2218
!!!COM: Anonim
!!!COM-rismID: pe30004985
!!!CDT:
!!!CNT:
!!!OPR: Missa
!!!OTL: Agnus Dei
!!!OMV: 004
!!!PDT:
!!!AGN: Sacred; Mass
!!!SMS-siglum: PL-Kk
!!!SMS-shelfmark: Kk.I.26
!!!SMS-shelfwork: 001-004 M
!!!SMS-variant:
!!!SMS-altvar:
!!!NIFC-rismSourceID: 1001156019
!!!NIFC-rismChildID: 1001156019
!!!NIFC-islandoraID: pl-kk:15411
!!!URL-pdf-islandora: https://repozytorium.nifc.pl/islandora/object/pl-kk%3A15411/datastream/PDF/view
!!!URL-scan:
!!!ONB-nifc: UWAGA: części Mszy: 1. Kyrie, 2. Et in terra, 3. Sanctus, 4. Agnus Dei.
!!!AIN: 1 alto 2 empty 3 tenor
!!!key:
**kern	**text	**kern	**text	**kern	**text	**kern	**kern	**text	**kern	**text
*part6	*part6	*part5	*part5	*part4	*part4	*part3	*part2	*part2	*part1	*part1
*staff6	*staff6	*staff5	*staff5	*staff4	*staff4	*staff3	*staff2	*staff2	*staff1	*staff1
*Iempty	*	*Iempty	*	*Itenor	*	*Itenor	*Itenor	*	*Ialto	*
*I"Baſso Ripieno.	*	*I"Baſso.	*	*I"Tenore 2do.	*	*I"Tenore I. Uagante ad Libitum	*I"Tenore Imo.	*	*I"Alto.	*
*I'B rip	*	*I'B	*	*I'T 2	*	*I'T 1 ad lib.	*I'T 1	*	*I'A	*
*clefF4	*	*clefF4	*	*clefC4	*	*clefC4	*clefC4	*	*clefC3	*
*k[]	*	*k[]	*	*k[]	*	*k[]	*k[]	*	*k[]	*
*a:	*	*a:	*	*a:	*	*a:	*a:	*	*a:	*
*M2/1	*	*M2/1	*	*M2/1	*	*M2/1	*M2/1	*	*M2/1	*
*met(C|)	*	*met(C|)	*	*met(C|)	*	*met(C|)	*met(C|)	*	*met(C|)	*
=1-	=1-	=1-	=1-	=1-	=1-	=1-	=1-	=1-	=1-	=1-
!LO:TX:t=P:problem=kreska pseudotaktowa	!	!LO:TX:t=P:problem=kreska pseudotaktowa	!	!	!	!	!LO:TX:t=P:problem=kreska pseudotaktowa	!	!	!
!LO:TX:b:t=I.	!	!LO:TX:b:t=I.	!	!LO:TX:b:t=I.	!	!	!LO:TX:b:t=I.	!	!	!
0r	.	0r	.	00r	.	0ryy	1e	A-	0r	.
!	!	!	!	!	!	!	!LO:TX:t=P:problem=kreska pseudotaktowa	!	!	!
.	.	.	.	.	.	.	1A	-gnus	.	.
=2-	=2-	=2-	=2-	=2-	=2-	=2-	=2-	=2-	=2-	=2-
!	!	!LO:TX:t=P:problem=kreska pseudotaktowa	!	!	!	!	!LO:TX:t=P:problem=kreska pseudotaktowa	!	!LO:TX:t=P:problem=kreska pseudotaktowa	!
1A	A-	1A	A-	.	.	0ryy	1c	De-	1r	.
!LO:TX:t=P:problem=kreska pseudotaktowa	!	!LO:TX:t=P:problem=kreska pseudotaktowa	!	!	!	!	!LO:TX:t=P:problem=kreska pseudotaktowa	!	!LO:TX:t=P:problem=kreska pseudotaktowa	!
!LO:TX:t=P:global:problem=oddech jako rozdzielacz słów	!	!LO:TX:t=P:global:problem=oddech jako rozdzielacz słów	!	!	!	!	!	!	!	!
1E,<	-gnus	1E,<	-gnus	.	.	.	1B,<	-i	1e	A-
=3-	=3-	=3-	=3-	=3-	=3-	=3-	=3-	=3-	=3-	=3-
!	!	!	!	!	!	!	!	!	!LO:TX:t=P:problem=kreska pseudotaktowa	!
1G	De-	1G	De-	0r	.	0ryy	2r	.	1B	-gnus
*	*	*	*	*	*	*	*2\right	*	*	*
!	!	!	!	!	!	!	!LO:TX:t=P:problem=kreska pseudotaktowa	!	!	!
.	.	.	.	.	.	.	2B\	qui	.	.
*2\right	*	*2\right	*	*	*	*	*	*	*	*
2F#X\	-i	2F#X,<\	-i	.	.	.	2d\	tol-	1d	De-
!LO:TX:t=P:problem=kreska pseudotaktowa	!	!LO:TX:t=P:problem=kreska pseudotaktowa	!	!	!	!	!	!	!	!
!	!	!	!	!	!	!	!LO:TX:t=P:global:problem=oddech jako rozdzielacz słów	!	!	!
2F#\	Qui	2F#\	Qui	.	.	.	4d,<\	-lis	.	.
!	!	!	!	!	!	!	!LO:TX:t=P:problem=kreska pseudotaktowa	!	!	!
.	.	.	.	.	.	.	4d\	pec-	.	.
=4-	=4-	=4-	=4-	=4-	=4-	=4-	=4-	=4-	=4-	=4-
*	*	*	*	*	*	*	*	*	*2\right	*
!	!	!	!	!LO:TX:t=P:problem=kreska pseudotaktowa	!	!	!LO:TX:t=P:problem=kreska pseudotaktowa	!	!	!
!	!	!	!	!	!	!	!	!	!LO:TX:t=P:global:problem=oddech jako rozdzielacz słów	!
2A\	tol-	2A\	tol-	1r	.	0ryy	1cn	-ca-	2e,<\	-i
!	!	!	!	!	!	!	!	!	!LO:TX:t=P:problem=kreska pseudotaktowa	!
4A\	-lis	4A\	-lis	.	.	.	.	.	2e\	Qui
!LO:TX:t=P:problem=kreska pseudotaktowa	!	!LO:TX:t=P:problem=kreska pseudotaktowa	!	!	!	!	!	!	!	!
4A\	p(ec)-	4A\	pec-	.	.	.	.	.	.	.
!	!	!	!	!LO:TX:t=P:problem=kreska pseudotaktowa	!	!	!	!	!	!
2Gn\	-ca-	2Gn\	-ca-	1e	A-	.	2B,<\	-ta	2g\	tol-
!LO:TX:t=P:problem=kreska pseudotaktowa	!	!LO:TX:t=P:problem=kreska pseudotaktowa	!	!	!	!	!	!	!	!
2E\	-ta	2E,<\	-ta	.	.	.	1e\	mun-	4g\	-lis
!	!	!	!	!	!	!	!	!	!LO:TX:t=P:problem=kreska pseudotaktowa	!
.	.	.	.	.	.	.	.	.	4g\	pec-
=5-	=5-	=5-	=5-	=5-	=5-	=5-	=5-	=5-	=5-	=5-
!	!	!	!	!LO:TX:t=P:problem=kreska pseudotaktowa	!	!	!	!	!	!
1Fny	mun-	1Fny	mun-	1A	-gnus	0ryy	.	.	2a\	-ca-
!	!	!	!	!	!	!	!LO:TX:t=P:problem=kreska pseudotaktowa	!	!LO:TX:t=P:problem=kreska pseudotaktowa	!
.	.	.	.	.	.	.	2d\	.	2a,<\	-ta
!	!	!	!	!	!	!	!LO:LB:g=original	!	!	!
2C,</	-di	2C,</	-di	1c	De-	.	2e,<\	-di,	1g	mun-
!LO:TX:t=P:problem=kreska pseudotaktowa	!	!LO:TX:t=P:problem=kreska pseudotaktowa	!	!	!	!	!LO:TX:t=P:problem=kreska pseudotaktowa	!	!	!
2C/	qui	2C/	qui	.	.	.	2E/	qui	.	.
=6-	=6-	=6-	=6-	=6-	=6-	=6-	=6-	=6-	=6-	=6-
*	*	*	*	*2\right	*	*	*	*	*	*
!	!	!	!	!	!	!	!	!	!LO:TX:t=P:problem=kreska pseudotaktowa	!
!	!	!	!	!LO:TX:t=P:global:problem=oddech jako rozdzielacz słów	!	!	!	!	!	!
1E	tol-	1E	tol-	2B,<\	-i	0ryy	2G/	tol-	1e,<	-di,
!	!	!	!	!LO:TX:t=P:problem=kreska pseudotaktowa	!	!	!	!	!	!
.	.	.	.	2B\	qui	.	4G/	-lis	.	.
!	!	!	!	!	!	!	!LO:TX:t=P:problem=kreska pseudotaktowa	!	!	!
.	.	.	.	.	.	.	4A/	pec-	.	.
!LO:TX:t=P:problem=kreska pseudotaktowa	!	!LO:TX:t=P:problem=kreska pseudotaktowa	!	!	!	!	!	!	!LO:TX:t=P:problem=kreska pseudotaktowa	!
1BB	-lis	1BB	-lis	1d	tol-	.	2.B\	-ca-	1r	.
.	.	.	.	.	.	.	8A/L	.	.	.
!	!	!	!	!	!	!	!LO:TX:t=P:problem=kreska pseudotaktowa	!	!	!
.	.	.	.	.	.	.	8G/J	.	.	.
=7-	=7-	=7-	=7-	=7-	=7-	=7-	=7-	=7-	=7-	=7-
!	!	!	!	!	!	!	!	!	!LO:TX:t=P:problem=kreska pseudotaktowa	!
(1D	pec-	1D	pec-	2A/	-lis	0ryy	4F#X/	-ta	1d	mi-
.	.	.	.	.	.	.	4E/	.	.	.
!	!	!	!	!LO:TX:t=P:problem=kreska pseudotaktowa	!	!	!	!	!	!
.	.	.	.	2A/	pec-	.	4F#/	.	.	.
.	.	.	.	.	.	.	4G/	.	.	.
!LO:TX:t=P:problem=kreska pseudotaktowa	!	!LO:TX:t=P:problem=kreska pseudotaktowa	!	!LO:TX:t=P:problem=kreska pseudotaktowa	!	!	!	!	!	!
1C)	.	1C	.	1c	-ca-	.	1A	mun-	2.e\	-ſe-
!	!	!	!	!	!	!	!	!	!LO:TX:t=P:problem=kreska pseudotaktowa	!
.	.	.	.	.	.	.	.	.	4f\	-re-
=8-	=8-	=8-	=8-	=8-	=8-	=8-	=8-	=8-	=8-	=8-
2.E\	-ca-	2.E\	-ca-	2B,<\	-ta	0ryy	2G,</	-di	2.g\	-re
.	.	.	.	2.e\	mun-	.	2c\	pec-	.	.
!LO:TX:t=P:problem=kreska pseudotaktowa	!	!LO:TX:t=P:problem=kreska pseudotaktowa	!	!	!	!	!	!	!LO:TX:t=P:problem=kreska pseudotaktowa	!
4F\	.	4F\	.	.	.	.	.	.	4a\	no-
2G\	.	2G\	.	.	.	.	2B\	-ca-	0g	.
.	.	.	.	4d\	.	.	.	.	.	.
!LO:TX:t=P:problem=kreska pseudotaktowa	!	!LO:TX:t=P:problem=kreska pseudotaktowa	!	!LO:TX:t=P:problem=kreska pseudotaktowa	!	!	!	!	!	!
2G\	-ta	2G\	-ta	[<2c\	.	.	2e,<\	-ta	.	.
=9-	=9-	=9-	=9-	=9-	=9-	=9-	=9-	=9-	=9-	=9-
1G	mun-	1G	mun-	2c\]	.	0ryy	2.dT\	mun-	.	.
.	.	.	.	2B\	.	.	.	.	.	.
.	.	.	.	.	.	.	8c\L	.	.	.
!	!	!	!	!	!	!	!LO:TX:t=P:problem=kreska pseudotaktowa	!	!	!
.	.	.	.	.	.	.	8d\J	.	.	.
!	!	!	!	!LO:TX:t=P:problem=kreska pseudotaktowa	!	!	!	!	!	!
2C,</	-di	2C,</	-di	1c,<	-di	.	2e,<\	-di	2g\	-bis
!	!	!	!	!	!	!	!	!	!LO:TX:t=P:problem=kreska pseudotaktowa	!
1C/	mi-	1C/	mi-	.	.	.	1e\	mi-	2r	.
=10-	=10-	=10-	=10-	=10-	=10-	=10-	=10-	=10-	=10-	=10-
!	!	!	!	!	!	!	!	!	!LO:TX:t=P:problem=kreska pseudotaktowa	!
.	.	.	.	1r	.	0ryy	.	.	0r	.
!LO:TX:t=P:problem=kreska pseudotaktowa	!	!	!	!	!	!	!LO:TX:t=P:problem=kreska pseudotaktowa	!	!	!
2BB/	-ſe-	2BB/	-ſe-	.	.	.	2d\	-ſe-	.	.
!	!	!LO:TX:t=P:problem=kreska pseudotaktowa	!	!	!	!	!LO:TX:t=P:problem=kreska pseudotaktowa	!	!	!
!	!	!LO:LB:g=original	!	!	!	!	!	!	!	!
1AA	-re-	1AA	-re-	2r	.	.	1c	-re-	.	.
.	.	.	.	1e\	mi-	.	.	.	.	.
=11-	=11-	=11-	=11-	=11-	=11-	=11-	=11-	=11-	=11-	=11-
!LO:TX:t=P:problem=kreska pseudotaktowa	!	!LO:TX:t=P:problem=kreska pseudotaktowa	!	!	!	!	!LO:TX:t=P:problem=kreska pseudotaktowa	!	!	!
1GG#X	-re	1GG#X	-re	.	.	0ryy	1B,<	-re	2.B/	mi-
!	!	!	!	!LO:TX:t=P:problem=kreska pseudotaktowa	!	!	!	!	!	!
.	.	.	.	2d\	-ſe-	.	.	.	.	.
*	*	*	*	*	*	*	*	*	*custos:c	*
!	!	!	!	!	!	!	!	!	!LO:TX:t=P:problem=kreska pseudotaktowa	!
.	.	.	.	.	.	.	.	.	4B/	-ſe-
!	!	!	!	!	!	!	!	!	!LO:LB:g=original	!
0AA	no-	0AA	no-	2c\	-re-	.	(2A\	no-	2c/	-re-
.	.	.	.	2B\	-re	.	2B\)	.	2e\	-re
=12-	=12-	=12-	=12-	=12-	=12-	=12-	=12-	=12-	=12-	=12-
.	.	.	.	1A	no-	0ryy	1c	.	1e	no-
!LO:TX:t=P:problem=kreska pseudotaktowa	!	!LO:TX:t=P:problem=kreska pseudotaktowa	!	!LO:TX:t=P:problem=kreska pseudotaktowa	!	!	!LO:TX:t=P:problem=kreska pseudotaktowa	!	!LO:TX:t=P:problem=kreska pseudotaktowa	!
!LO:N:vis=0	!	!LO:N:vis=0	!	!LO:N:vis=0	!	!	!LO:N:vis=0	!	!LO:N:vis=0	!
1E;	-bis.	1E;	-bis.	1G#X;	-bis.	.	1B;	-bis.	1e;	-bis.
=13||	=13||	=13||	=13||	=13||	=13||	=13||	=13||	=13||	=13||	=13||
*M2/1	*	*M2/1	*	*M2/1	*	*M2/1	*M2/1	*	*M2/1	*
*met(C|)	*	*met(C|)	*	*met(C|)	*	*met(C|)	*met(C|)	*	*met(C|)	*
!LO:TX:b:t=2.	!	!LO:TX:b:t=2.	!	!LO:TX:b:t=2.	!	!	!LO:TX:b:t=2.	!	!LO:TX:b:t=2.	!
!	!	!LO:TX:t=P:problem=kreska pseudotaktowa	!	!	!	!	!LO:LB:g=original	!	!LO:TX:t=P:problem=kreska pseudotaktowa	!
!LO:LB:g=original	!	!	!	!LO:LB:g=original	!	!	!LO:TX:t=P:problem=kreska pseudotaktowa	!	!	!
1E	A-	1E	A-	0r	.	0ryy	1r	.	0r	.
2F#X\	-gnus	2F#X,<\	-gnus	.	.	.	1A	A-	.	.
1A\	De-	1A\	De-	.	.	.	.	.	.	.
=14-	=14-	=14-	=14-	=14-	=14-	=14-	=14-	=14-	=14-	=14-
!	!	!	!	!LO:TX:t=P:problem=kreska pseudotaktowa	!	!	!	!	!	!
.	.	.	.	1r	.	0ryy	2Bn\	-gnus	2r	.
!	!	!LO:TX:t=P:problem=kreska pseudotaktowa	!	!	!	!	!	!	!LO:TX:t=P:problem=kreska pseudotaktowa	!
2G\	.	2G\	.	.	.	.	1e	De-	(2g\	A-
1F#X	.	1F#X	.	2r	.	.	.	.	2a\)	.
!	!	!	!	!LO:TX:t=P:problem=kreska pseudotaktowa	!	!	!LO:TX:t=P:problem=kreska pseudotaktowa	!	!LO:TX:t=P:problem=kreska pseudotaktowa	!
.	.	.	.	2A\	A-	.	2d\	.	2a\	-gnus
=15-	=15-	=15-	=15-	=15-	=15-	=15-	=15-	=15-	=15-	=15-
2E,<\	-i	2E,<\	-i	2B\	-gnus	0ryy	2e,<\	-i	(2g\	De-
!LO:TX:t=P:problem=kreska pseudotaktowa	!	!LO:TX:t=P:problem=kreska pseudotaktowa	!	!	!	!	!LO:TX:t=P:problem=kreska pseudotaktowa	!	!LO:TX:t=P:problem=kreska pseudotaktowa	!
2C/	Qui	2C/	Qui	1e	De-	.	2G/	Qui	2e\)	.
2AA/	tol-	2AA/	tol-	.	.	.	1F#X	tol-	2c,<\	-i
!LO:TX:t=P:problem=kreska pseudotaktowa	!	!LO:TX:t=P:problem=kreska pseudotaktowa	!	!LO:TX:t=P:problem=kreska pseudotaktowa	!	!	!	!	!LO:TX:t=P:problem=kreska pseudotaktowa	!
!	!	!	!	!	!	!	!	!	!LO:SIC:v:s=2d#\	!
2BB/	.	2BB/	.	2d#X\	.	.	.	.	2d\	Qui
=16-	=16-	=16-	=16-	=16-	=16-	=16-	=16-	=16-	=16-	=16-
2C,</	lis	2C,</	lis	2e,<\	-i	0ryy	4E/	-lis	2e\	tol-
.	.	.	.	.	.	.	4C/	.	.	.
!LO:TX:t=P:problem=kreska pseudotaktowa	!	!LO:TX:t=P:problem=kreska pseudotaktowa	!	!LO:TX:t=P:problem=kreska pseudotaktowa	!	!	!	!	!	!
2E\	pec-	2E\	pec-	2e\	Qui	.	1c	pec-	4a\	.
!	!	!	!	!	!	!	!	!	!LO:TX:t=P:problem=kreska pseudotaktowa	!
.	.	.	.	.	.	.	.	.	4a\	-lis
2F#X\	-ca-	2F#X\	-ca-	2dn\	tol-	.	.	.	2a\	pec-
!LO:TX:t=P:problem=kreska pseudotaktowa	!	!LO:TX:t=P:problem=kreska pseudotaktowa	!	!	!	!	!LO:TX:t=P:problem=kreska pseudotaktowa	!	!	!
2G\	-ta	2G\	-ta	4d,<\	-lis	.	2B\	-ca-	1g\	-ca-
!	!	!	!	!LO:TX:t=P:problem=kreska pseudotaktowa	!	!	!	!	!	!
.	.	.	.	4d\	pec-	.	.	.	.	.
=17-	=17-	=17-	=17-	=17-	=17-	=17-	=17-	=17-	=17-	=17-
2E\	mun-	2E\	mun-	2Gny/	-ca-	0ryy	2c#X\	-ta	.	.
!LO:TX:t=P:problem=kreska pseudotaktowa	!	!LO:TX:t=P:problem=kreska pseudotaktowa	!	!LO:TX:t=P:problem=kreska pseudotaktowa	!	!	!	!	!LO:TX:t=P:problem=kreska pseudotaktowa	!
2D\	.	2D\	.	2F#X/	-ta	.	1d	mun-	2d\	-ta
!	!	!	!	!LO:TX:t=P:problem=kreska pseudotaktowa	!	!	!	!	!	!
1E	.	1E	.	1G	mun-	.	.	.	2B/	mun-
!	!	!	!	!	!	!	!LO:TX:t=P:problem=kreska pseudotaktowa	!	!	!
!	!	!	!	!	!	!	!LO:TX:a:t=P:problem=# above	!	!LO:TX:t=P:problem=kreska pseudotaktowa	!
.	.	.	.	.	.	.	2c#X\	.	2G/	.
=18-	=18-	=18-	=18-	=18-	=18-	=18-	=18-	=18-	=18-	=18-
!LO:TX:t=P:problem=kreska pseudotaktowa	!	!LO:TX:t=P:problem=kreska pseudotaktowa	!	!LO:TX:t=P:problem=kreska pseudotaktowa	!	!	!	!	!LO:TX:t=P:problem=kreska pseudotaktowa	!
1D,<	-di	1D,<	-di	1F#X	-di	0ryy	2d,<\	-di	1A,<	-di
.	.	.	.	.	.	.	2.d\	mi-	.	.
2.E\	mi-	2.E\	mi-	0r	.	.	.	.	0r	.
.	.	.	.	.	.	.	4d\	-ſe-	.	.
.	.	.	.	.	.	.	1cny\	-re-	.	.
!LO:TX:t=P:problem=kreska pseudotaktowa	!	!LO:TX:t=P:problem=kreska pseudotaktowa	!	!	!	!	!	!	!	!
4E\	-ſe-	4E\	-ſe-	.	.	.	.	.	.	.
=19-	=19-	=19-	=19-	=19-	=19-	=19-	=19-	=19-	=19-	=19-
!	!	!LO:LB:g=original	!	!	!	!	!	!	!	!
4F#X\	-re-	4F#X\	-re-	.	.	0ryy	.	.	.	.
4D,<\	-re	4D\	-re	.	.	.	.	.	.	.
!	!	!	!	!	!	!	!LO:TX:t=P:problem=kreska pseudotaktowa	!	!	!
1G	no-	1G	no-	.	.	.	2B\	-re	.	.
!	!	!	!	!	!	!	!LO:TX:t=P:problem=kreska pseudotaktowa	!	!	!
!	!	!	!	!	!	!	!	!	!LO:TX:t=P:problem=kreska pseudotaktowa	!
.	.	.	.	2r	.	.	1A	no-	1r	.
!LO:TX:t=P:problem=kreska pseudotaktowa	!	!LO:TX:t=P:problem=kreska pseudotaktowa	!	!	!	!	!	!	!	!
2F#X\	.	2F#X\	.	2.d\	mi-	.	.	.	.	.
=20-	=20-	=20-	=20-	=20-	=20-	=20-	=20-	=20-	=20-	=20-
2G,<\	-bis,	2G,<\	-bis,	.	.	0ryy	2B,<\	-bis	2r	.
.	.	.	.	4d\	-ſe-	.	.	.	.	.
*	*ij	*	*	*	*	*	*	*	*	*
1G	mi-	1G	mi-	1cn	-re-	.	2e\	mi-	2.g\	mi-
!	!	!	!	!	!	!	!LO:TX:t=P:problem=kreska pseudotaktowa	!	!	!
.	.	.	.	.	.	.	1d	-ſe-	.	.
.	.	.	.	.	.	.	.	.	4g\	-ſe-
!	!	!LO:TX:t=P:problem=kreska pseudotaktowa	!	!LO:TX:t=P:problem=kreska pseudotaktowa	!	!	!	!	!LO:TX:t=P:problem=kreska pseudotaktowa	!
2Fn\	-ſe-	2Fn\	-ſe-	2B\	-re	.	.	.	2g\	-re-
=21-	=21-	=21-	=21-	=21-	=21-	=21-	=21-	=21-	=21-	=21-
*	*	*	*	*	*ij	*	*	*	*	*
2E\	-re-	2E\	-re-	2.A/	mi-	0ryy	2c#X\	-re-	(2e\	-re
!LO:TX:t=P:problem=kreska pseudotaktowa	!	!LO:TX:t=P:problem=kreska pseudotaktowa	!	!	!	!	!	!	!LO:TX:t=P:problem=kreska pseudotaktowa	!
2F\	-re	2F\	-re	.	.	.	1d	.	2fn\)	.
!	!	!	!	!LO:TX:t=P:problem=kreska pseudotaktowa	!	!	!	!	!	!
.	.	.	.	4A/	-ſe-	.	.	.	.	.
!	!	!	!	!	!	!	!	!	!LO:LB:g=original	!
2E\	no-	2E\	no-	2G#X/	-re-	.	.	.	2B/	no-
*	*	*	*	*custos:B	*	*	*	*	*	*
!	!	!	!	!LO:TX:t=P:problem=kreska pseudotaktowa	!	!	!	!	!	!
!	!	!LO:TX:t=P:problem=kreska pseudotaktowa	!	!	!	!	!LO:TX:a:t=P:problem=♮ above	!	!	!
2AA/	.	2AA/	.	2A/	-re	.	2cn\	-re	4c\	.
*	*	*	*	*	*Xij	*	*	*	*	*
!	!	!	!	!	!	!	!	!	!LO:TX:t=P:problem=kreska pseudotaktowa	!
.	.	.	.	.	.	.	.	.	4d\	.
=22-	=22-	=22-	=22-	=22-	=22-	=22-	=22-	=22-	=22-	=22-
!	!	!	!	!LO:LB:g=original	!	!	!	!	!LO:TX:t=P:problem=kreska pseudotaktowa	!
0E	.	0E	.	2B\	no-	0ryy	4G#X/	no-	[<1e	.
.	.	.	.	.	.	.	4E/	.	.	.
!	!	!	!	!LO:TX:t=P:problem=kreska pseudotaktowa	!	!	!	!	!	!
.	.	.	.	2c\	.	.	1A	.	.	.
.	.	.	.	1B	.	.	.	.	1e]	.
.	.	.	.	.	.	.	2G#X/	.	.	.
=23-	=23-	=23-	=23-	=23-	=23-	=23-	=23-	=23-	=23-	=23-
!LO:TX:t=P:problem=kreska pseudotaktowa	!	!LO:TX:t=P:problem=kreska pseudotaktowa	!	!LO:TX:t=P:problem=kreska pseudotaktowa	!	!	!LO:TX:t=P:problem=kreska pseudotaktowa	!	!LO:TX:t=P:problem=kreska pseudotaktowa	!
0AA;	-bis	0AA;	-bis.	0c#X;	-bis.	0ryy	0A;	-bis	0e;	-bis.
*	*Xij	*	*	*	*	*	*	*	*	*
=24||	=24||	=24||	=24||	=24||	=24||	=24||	=24||	=24||	=24||	=24||
*M2/1	*	*M2/1	*	*M2/1	*	*M2/1	*M2/1	*	*M2/1	*
*met(C|)	*	*met(C|)	*	*met(C|)	*	*met(C|)	*met(C|)	*	*met(C|)	*
!LO:TX:b:t=3.	!	!LO:TX:b:t=3.	!	!LO:TX:b:t=3.	!	!	!LO:TX:b:t=3.	!	!LO:TX:b:t=3.	!
!	!	!LO:TX:t=P:problem=kreska pseudotaktowa	!	!LO:TX:t=P:problem=kreska pseudotaktowa	!	!	!LO:LB:g=original	!	!	!
!LO:LB:g=original	!	!	!	!	!	!	!	!	!LO:TX:t=P:problem=kreska pseudotaktowa	!
0r	.	0r	.	1A	A-	0ryy	00r	.	00r	.
.	.	.	.	2E,</	-gnus	.	.	.	.	.
!	!	!	!	!LO:TX:t=P:problem=kreska pseudotaktowa	!	!	!	!	!	!
.	.	.	.	2e\	De-	.	.	.	.	.
=25-	=25-	=25-	=25-	=25-	=25-	=25-	=25-	=25-	=25-	=25-
2r	.	2r	.	2dn\	-i	0ryy	.	.	.	.
!LO:TX:t=P:problem=kreska pseudotaktowa	!	!LO:TX:t=P:problem=kreska pseudotaktowa	!	!LO:TX:t=P:problem=kreska pseudotaktowa	!	!	!	!	!	!
2E\	A-	2E\	A-	2B\	qui	.	.	.	.	.
2AA,</	-gnus	2AA,</	-gnus	2.cny\	tol-	.	.	.	.	.
!LO:TX:t=P:problem=kreska pseudotaktowa	!	!LO:TX:t=P:problem=kreska pseudotaktowa	!	!	!	!	!	!	!	!
2A\	De-	2A\	De-	.	.	.	.	.	.	.
!	!	!	!	!LO:TX:t=P:problem=kreska pseudotaktowa	!	!	!	!	!	!
.	.	.	.	4d\	.	.	.	.	.	.
=26-	=26-	=26-	=26-	=26-	=26-	=26-	=26-	=26-	=26-	=26-
!	!	!	!	!	!	!	!LO:TX:t=P:problem=kreska pseudotaktowa	!	!LO:TX:t=P:problem=kreska pseudotaktowa	!
2G\	-i	2Gn\	-i	4e\	.	0ryy	1r	.	1e	A-
.	.	.	.	4B\	.	.	.	.	.	.
!LO:TX:t=P:problem=kreska pseudotaktowa	!	!LO:TX:t=P:problem=kreska pseudotaktowa	!	!	!	!	!	!	!	!
2E\	qui	2E\	qui	1e	.	.	.	.	.	.
!	!	!LO:TX:t=P:problem=kreska pseudotaktowa	!	!	!	!	!	!	!	!
1F	tol-	1F	tol-	.	.	.	1A	A-	2A,</	-gn(us)
!	!	!	!	!LO:TX:t=P:problem=kreska pseudotaktowa	!	!	!	!	!LO:TX:t=P:problem=kreska pseudotaktowa	!
.	.	.	.	2d\	.	.	.	.	2a\	De-
=27-	=27-	=27-	=27-	=27-	=27-	=27-	=27-	=27-	=27-	=27-
2C,</	-lis	2C,</	-lis	2e,<\	lis	0ryy	2E,</	-gnus	2g,<\	-i
!LO:TX:t=P:problem=kreska pseudotaktowa	!	!LO:TX:t=P:problem=kreska pseudotaktowa	!	!LO:TX:t=P:problem=kreska pseudotaktowa	!	!	!LO:TX:t=P:problem=kreska pseudotaktowa	!	!	!
2C/	pec-	2C/	pec-	2E/	pec-	.	2e\	De-	2c/	Qui
!	!	!	!	!	!	!	!	!	!LO:TX:t=P:problem=kreska pseudotaktowa	!
2D\	-ca-	2D\	-ca-	2F#X/	-ca-	.	2d\	i	1c	tol-
!LO:TX:t=P:problem=kreska pseudotaktowa	!	!LO:TX:t=P:problem=kreska pseudotaktowa	!	!LO:TX:t=P:problem=kreska pseudotaktowa	!	!	!LO:TX:t=P:problem=kreska pseudotaktowa	!	!	!
2E\	-ta	2E\	-ta	2G#X/	-ta	.	2B\	qui	.	.
=28-	=28-	=28-	=28-	=28-	=28-	=28-	=28-	=28-	=28-	=28-
!	!	!LO:LB:g=original	!	!	!	!	!	!	!	!
4AA/	mun-	4AA/	mun-	1A	mun-	0ryy	1c	tol-	(4c\	-lis
4BB/	.	(4BB/	.	.	.	.	.	.	4d\)	.
4C/	.	4C/)	.	.	.	.	.	.	4e\	.
!LO:TX:t=P:problem=kreska pseudotaktowa	!	!LO:TX:t=P:problem=kreska pseudotaktowa	!	!	!	!	!	!	!LO:TX:t=P:problem=kreska pseudotaktowa	!
4D/	.	(4D/	.	.	.	.	.	.	4f#X\	.
!	!	!	!	!LO:TX:t=P:problem=kreska pseudotaktowa	!	!	!	!	!	!
2E,<\	-di	2E,</)	-di	1G#X,<	-di	.	2B,<\	-lis	2g#X\	pec-
*	*	*	*	*	*	*	*	*ij	*	*
1E\	Do-	1E\	Do-	.	.	.	1B\	qui	1g#\	-ca-
=29-	=29-	=29-	=29-	=29-	=29-	=29-	=29-	=29-	=29-	=29-
*	*	*	*	*custos:A	*	*	*	*	*	*
!	!	!	!	!LO:TX:t=P:problem=kreska pseudotaktowa	!	!	!	!	!	!
.	.	.	.	0r	.	0ryy	.	.	.	.
!LO:TX:t=P:problem=kreska pseudotaktowa	!	!LO:TX:t=P:problem=kreska pseudotaktowa	!	!	!	!	!	!	!LO:TX:t=P:problem=kreska pseudotaktowa	!
2C/	-na	2C/	-na	.	.	.	1A	tol-	2e\	-ta
2D\	.	2D\	.	.	.	.	.	.	(2fn\	mun-
!LO:TX:t=P:problem=kreska pseudotaktowa	!	!LO:TX:t=P:problem=kreska pseudotaktowa	!	!	!	!	!LO:TX:t=P:problem=kreska pseudotaktowa	!	!LO:TX:t=P:problem=kreska pseudotaktowa	!
2E\	no-	2E\	no-	.	.	.	2G#X,</	-lis	2B/)	.
*	*	*	*	*	*	*	*	*Xij	*	*
=30-	=30-	=30-	=30-	=30-	=30-	=30-	=30-	=30-	=30-	=30-
!LO:TX:t=P:problem=kreska pseudotaktowa	!	!LO:TX:t=P:problem=kreska pseudotaktowa	!	!LO:LB:g=original	!	!	!	!	!LO:TX:t=P:problem=kreska pseudotaktowa	!
1F	-bis	1F	-bis	2r	.	0ryy	4A/	pec-	1A,<	-di
.	.	.	.	.	.	.	4Gny/	.	.	.
.	.	.	.	1A	Do-	.	4A/	.	.	.
!	!	!	!	!	!	!	!LO:TX:t=P:problem=kreska pseudotaktowa	!	!	!
.	.	.	.	.	.	.	4B/	.	.	.
2.E\	pa-	2.E\	pa-	.	.	.	2c\	-ca-	0r	.
!	!	!	!	!LO:TX:t=P:problem=kreska pseudotaktowa	!	!	!LO:TX:t=P:problem=kreska pseudotaktowa	!	!	!
.	.	.	.	2G#X/	-na	.	2B\	-ta	.	.
!LO:TX:t=P:problem=kreska pseudotaktowa	!	!LO:TX:t=P:problem=kreska pseudotaktowa	!	!	!	!	!	!	!	!
4D/	.	4D/	.	.	.	.	.	.	.	.
=31-	=31-	=31-	=31-	=31-	=31-	=31-	=31-	=31-	=31-	=31-
2C/	.	2C/	.	2A\	no-	0ryy	4c\	mun-	.	.
.	.	.	.	.	.	.	4d\	.	.	.
!LO:TX:t=P:problem=kreska pseudotaktowa	!	!LO:TX:t=P:problem=kreska pseudotaktowa	!	!LO:TX:t=P:problem=kreska pseudotaktowa	!	!	!LO:TX:t=P:problem=kreska pseudotaktowa	!	!	!
2GG#X/	.	2GG#X/	.	2B\	-bis	.	2e\	.	.	.
!	!	!	!	!LO:TX:t=P:problem=kreska pseudotaktowa	!	!	!	!	!	!
2AA,</	-cem	2AA,</	-cem.	1c	pa-	.	2E/	-di,	2r	.
!	!	!	!	!	!	!	!LO:TX:t=P:problem=kreska pseudotaktowa	!	!	!
1A\	Do-	1A\	Do-	.	.	.	2r	.	1e\	Do-
=32-	=32-	=32-	=32-	=32-	=32-	=32-	=32-	=32-	=32-	=32-
!	!	!	!	!LO:TX:t=P:problem=kreska pseudotaktowa	!	!	!	!	!	!
.	.	.	.	1B	-cem	0ryy	2.e\	Do-	.	.
!LO:TX:t=P:problem=kreska pseudotaktowa	!	!LO:TX:t=P:problem=kreska pseudotaktowa	!	!	!	!	!	!	!LO:TX:t=P:problem=kreska pseudotaktowa	!
2G#X\	-na	2G#X\	-na	.	.	.	.	.	2e\	-na
!	!	!	!	!	!	!	!LO:TX:t=P:problem=kreska pseudotaktowa	!	!	!
.	.	.	.	.	.	.	4d\	-na	.	.
!	!	!	!	!LO:TX:t=P:problem=kreska pseudotaktowa	!	!	!	!	!	!
!	!	!	!	!LO:TX:a:t=1.	!	!	!	!	!	!
2A\	no-	2A\	no-	1r	.	.	2c\	no-	2e\	no-
!	!	!LO:TX:t=P:problem=kreska pseudotaktowa	!	!	!	!	!LO:TX:t=P:problem=kreska pseudotaktowa	!	!LO:TX:t=P:problem=kreska pseudotaktowa	!
2B\	-bis	2B\	-bis	.	.	.	2G#X/	-bis	2d\	-bis
=33-	=33-	=33-	=33-	=33-	=33-	=33-	=33-	=33-	=33-	=33-
!LO:TX:t=P:problem=kreska pseudotaktowa	!	!LO:TX:t=P:problem=kreska pseudotaktowa	!	!	!	!	!	!	!	!
1c	pa-	1c	pa-	2r	.	0ryy	2A\	pa-	(2c\	pa-
!	!	!	!	!	!	!	!	!	!LO:TX:t=P:problem=kreska pseudotaktowa	!
.	.	.	.	1e	do-	.	4e\	.	2e\)	.
!	!	!	!	!	!	!	!LO:TX:t=P:problem=kreska pseudotaktowa	!	!	!
.	.	.	.	.	.	.	4f#X\	.	.	.
!LO:LB:g=original	!	!	!	!	!	!	!	!	!LO:LB:g=original	!
2.B\	.	2.B\	.	.	.	.	2g\	.	2.d\	.
!	!	!	!	!LO:TX:t=P:problem=kreska pseudotaktowa	!	!	!LO:TX:t=P:problem=kreska pseudotaktowa	!	!	!
.	.	.	.	2d#X\	-na	.	2f#X\	.	.	.
!LO:TX:t=P:problem=kreska pseudotaktowa	!	!LO:TX:t=P:problem=kreska pseudotaktowa	!	!	!	!	!	!	!LO:TX:t=P:problem=kreska pseudotaktowa	!
4A\	.	4A\	.	.	.	.	.	.	4c\	.
=34-	=34-	=34-	=34-	=34-	=34-	=34-	=34-	=34-	=34-	=34-
4Gny\	.	4Gny\	.	2e\	no-	0ryy	2e\	.	4B/	.
4F#X\	.	4F#X\	.	.	.	.	.	.	4d/	.
*	*	*	*	*	*	*	*custos:A	*	*	*
!	!	!	!	!LO:TX:t=P:problem=kreska pseudotaktowa	!	!	!LO:TX:t=P:problem=kreska pseudotaktowa	!	!LO:TX:t=P:problem=kreska pseudotaktowa	!
1E	.	1E	.	2g\	-bis	.	2Bn\	.	2e\	.
!	!	!	!	!LO:TX:t=P:problem=kreska pseudotaktowa	!	!	!LO:LB:g=original	!	!	!
.	.	.	.	1f#X	pa-	.	2A,</	-cem	2c,<\	-cem
!LO:TX:t=P:problem=kreska pseudotaktowa	!	!LO:TX:t=P:problem=kreska pseudotaktowa	!	!	!	!	!	!	!LO:TX:t=P:problem=kreska pseudotaktowa	!
2D\	.	2D\	.	.	.	.	1Bn\	Do-	2d\	Do-
=35-	=35-	=35-	=35-	=35-	=35-	=35-	=35-	=35-	=35-	=35-
*	*	*custos:BB	*	*	*	*	*	*	*	*
!	!	!LO:TX:t=P:problem=kreska pseudotaktowa	!	!	!	!	!	!	!	!
!	!	!	!	!LO:TX:t=P:problem=kreska pseudotaktowa	!	!	!	!	!	!
1Cn	.	1Cn	.	1e	.	0ryy	.	.	2e\	.
!	!	!	!	!	!	!	!LO:TX:t=P:problem=kreska pseudotaktowa	!	!LO:TX:t=P:problem=kreska pseudotaktowa	!
.	.	.	.	.	.	.	2A/	-na	2c/	-na
!	!	!LO:LB:g=original	!	!	!	!	!	!	!	!
2.BB/	.	2.BB/	.	2dny,<\	-cem,	.	2Gny/	no-	2.d\	no-
!	!	!	!	!	!	!	!LO:TX:t=P:problem=kreska pseudotaktowa	!	!	!
.	.	.	.	1d\	Do-	.	2F#X/	-bis	.	.
!LO:TX:t=P:problem=kreska pseudotaktowa	!	!LO:TX:t=P:problem=kreska pseudotaktowa	!	!	!	!	!	!	!LO:TX:t=P:problem=kreska pseudotaktowa	!
4AA/	.	4AA/	.	.	.	.	.	.	4c/	.
=36-	=36-	=36-	=36-	=36-	=36-	=36-	=36-	=36-	=36-	=36-
2GG#X/	.	2GG#X/	.	.	.	0ryy	2E/	pa-	2B,</	-bis
!LO:TX:t=P:problem=kreska pseudotaktowa	!	!LO:TX:t=P:problem=kreska pseudotaktowa	!	!LO:TX:t=P:problem=kreska pseudotaktowa	!	!	!	!	!LO:TX:t=P:problem=kreska pseudotaktowa	!
2AA/	-cem	2AA/	-cem	2cn\	-na	.	1A	.	2e\	pa-
2.E\	Do-	2.E\	Do-	1B	no-	.	.	.	2e\	-cem
!	!	!	!	!	!	!	!LO:TX:t=P:problem=kreska pseudotaktowa	!	!LO:TX:t=P:problem=kreska pseudotaktowa	!
.	.	.	.	.	.	.	2G#X/	.	2r	.
!LO:TX:t=P:problem=kreska pseudotaktowa	!	!LO:TX:t=P:problem=kreska pseudotaktowa	!	!	!	!	!	!	!	!
4D/	-na	4D/	-na	.	.	.	.	.	.	.
=37-	=37-	=37-	=37-	=37-	=37-	=37-	=37-	=37-	=37-	=37-
2C/	no-	2C/	no-	2.e\	.	0ryy	2A|\	.	2r	.
*	*	*	*	*	*	*	*	*	*	*ij
!	!	!	!	!	!	!	!LO:TX:t=P:problem=kreska pseudotaktowa	!	!	!
!LO:TX:t=P:problem=kreska pseudotaktowa	!	!LO:TX:t=P:problem=kreska pseudotaktowa	!	!	!	!	!	!	!LO:TX:t=P:problem=kreska pseudotaktowa	!
2GG#X/	-bis	2GG#X/	-bis	.	.	.	2B|\	-cem	2e\	do-
!	!	!	!	!LO:TX:t=P:problem=kreska pseudotaktowa	!	!	!	!	!	!
.	.	.	.	4d\	.	.	.	.	.	.
2AA/	pa-	2AA/	pa-	2c\	.	.	2r	.	2e,<\	-na
*	*	*	*	*custos:A	*	*	*	*	*	*
!	!	!	!	!LO:TX:t=P:problem=kreska pseudotaktowa	!	!	!	!	!	!
!LO:TX:t=P:problem=kreska pseudotaktowa	!	!LO:TX:t=P:problem=kreska pseudotaktowa	!	!	!	!	!	!	!LO:TX:t=P:problem=kreska pseudotaktowa	!
2E\	.	2E\	.	2G#X/	.	.	4.e\	do-	2e\	no-
!	!	!	!	!	!	!	!LO:TX:t=P:problem=kreska pseudotaktowa	!	!	!
.	.	.	.	.	.	.	8d\	-na	.	.
=38-	=38-	=38-	=38-	=38-	=38-	=38-	=38-	=38-	=38-	=38-
!	!	!	!	!LO:LB:g=original	!	!	!	!	!	!
2A\	.	2A\	.	2A,<\	-bis	0ryy	2cn\	no-	2e,<\	-bis
!LO:TX:t=P:problem=kreska pseudotaktowa	!	!LO:TX:t=P:problem=kreska pseudotaktowa	!	!LO:TX:t=P:problem=kreska pseudotaktowa	!	!	!LO:TX:t=P:problem=kreska pseudotaktowa	!	!LO:TX:t=P:problem=kreska pseudotaktowa	!
2E\	.	2E\	.	2B\	Pa-	.	2G#X/	-bis	2e\	pa-
(4AA/	.	4AA/	.	4c\	.	.	4A/	Pa-	2e\	-cem
*	*	*	*	*	*	*	*	*	*	*Xij
4BB/	.	4BB/	.	4d\	.	.	8G#/L	.	.	.
.	.	.	.	.	.	.	8F#X/J	.	.	.
!	!	!	!	!	!	!	!	!	!LO:TX:t=P:problem=kreska pseudotaktowa	!
4C/	.	4C/	.	1e\	.	.	4E/	.	2r	.
!LO:TX:t=P:problem=kreska pseudotaktowa	!	!LO:TX:t=P:problem=kreska pseudotaktowa	!	!	!	!	!LO:TX:t=P:problem=kreska pseudotaktowa	!	!	!
4D/)	.	4D/	.	.	.	.	4F#X/	.	.	.
=39-	=39-	=39-	=39-	=39-	=39-	=39-	=39-	=39-	=39-	=39-
0E	.	0E	.	.	.	0ryy	4G#X/	.	2r	.
.	.	.	.	.	.	.	4E/	.	.	.
!	!	!	!	!	!	!	!	!	!LO:TX:t=P:problem=kreska pseudotaktowa	!
.	.	.	.	4d\	.	.	1A	.	2e\	pa-
!	!	!	!	!LO:TX:t=P:problem=kreska pseudotaktowa	!	!	!	!	!	!
.	.	.	.	4c\	.	.	.	.	.	.
.	.	.	.	4B\	.	.	.	.	1e	-cem.
.	.	.	.	4A\	.	.	.	.	.	.
.	.	.	.	2B\	.	.	2G#X/	.	.	.
=40-	=40-	=40-	=40-	=40-	=40-	=40-	=40-	=40-	=40-	=40-
0AA;	-cem.	0AA;	-cem.	0c#X;	-cem.	0ryy	0A;	-cem.	0e;	.
=-	=-	=-	=-	=-	=-	=-	=-	=-	=-	=-
*-	*-	*-	*-	*-	*-	*-	*-	*-	*-	*-
!!!system-decoration: [(s1,s2,s3,s4,s5,s6)]
!!!RDF**kern: < = below
!!!RDF**kern: > = above
!!!RDF**kern: | = vertical stroke
!!!ENC: Marta Chmielewska
!!!END: 2021-07-26
!!!ENC: Tomasz Grochalski
!!!END: 2021-07-02
!!!YEC: Copyright 2022 Narodowy Instytut Fryderyka Chopina (https://polishscores.org)
!!!YEM: License CC-BY-4.0 (https://creativecommons.org/licenses/by/4.0)
